X: 126
T: That’s My Rabbit, My Dog Caught It
B: canberra pickers and fiddlers
B: old time tunes update
B: tunes
M:2/4
L:1/8
Q: 1/4=100
K:C
V:1 
e>(A c/)A/c/c/|ee/e/ ge/g/|e/g/e/(A/ c/)A/c/c/|A/B/A/G/ E/D/C|
e>(A c2)|e>(e g)e/g/|(a/g/)a/g/ a/g/e/c/|1 e>(A c2):|2 e>(A c)c/A/||
|:{D}GA/A/ c/(d/c/)c/|c/(d/c/)c/ c/(d/c/)c/|{D}GA/A/ c/(d/c/)c/|
c/(d/c/)D/ G/D/E|{D}GA/A/ c/d/c/c/|c/d/c/c/ ce/g/|a/g/a/g/ g/e/c|e>(A c2):|
% abcbook-tune_id 67a7d9ec4e82c755a2893f66
% abcbook-tune_composer_id 
% abcbook-link-0 https://www.youtube.com/watch?v=A_IAA-1Ah4A
% abcbook-link-title-0 That&#39;s My Rabbit, My Dog Caught It
% abcbook-boost 0
% abcbook-difficulty 0
% abcbook-tags old time tunes
% abcbook-tablature 
% abcbook-transpose 
% abcbook-tuning GDAE
% abcbook-lastupdated 1739243187894
% abcbook-src-url 
% abcbook-soundfonts 
% abcbook-repeats 1


